svgs/youbike.svg

<svg width="192" height="192" viewBox="0 0 192 192" fill="none" xmlns="http://www.w3.org/2000/svg">
<path d="M111 126C111 145.694 90.9782 160 71.3721 160C51.766 160 40 145.694 40 126" stroke="black" stroke-width="12" stroke-linecap="round" stroke-linejoin="round"/>
<path d="M112.5 102.5C120.508 102.5 129 97.9558 129 90.5C129 83.0442 122.508 77 114.5 77C106.492 77 100 83.0442 100 90.5C100 97.9558 104.492 102.5 112.5 102.5Z" stroke="black" stroke-width="12"/>
<path d="M34.5 102.5C42.5081 102.5 51 97.9558 51 90.5C51 83.0442 44.5081 77 36.5 77C28.4919 77 22 83.0442 22 90.5C22 97.9558 26.4919 102.5 34.5 102.5Z" stroke="black" stroke-width="12"/>
<path d="M170 65C170 60.216 169.139 55.6332 167.562 51.3982C166.88 49.5644 166.064 47.7959 165.125 46.1045C163.75 43.626 162.112 41.3131 160.25 39.2032C159.172 37.9817 158.018 36.8282 156.797 35.75C154.687 33.8878 152.374 32.2503 149.896 30.875C148.204 29.9364 146.436 29.12 144.602 28.4375C140.367 26.8614 135.784 26 131 26" stroke="black" stroke-width="12" stroke-linecap="round"/>
<path d="M149 65C149 62.792 148.602 60.6769 147.875 58.7222C147.56 57.8759 147.183 57.0596 146.75 56.279C146.115 55.1351 145.359 54.0676 144.5 53.0938C144.002 52.53 143.47 51.9976 142.906 51.5C141.932 50.6405 140.865 49.8848 139.721 49.25C138.94 48.8168 138.124 48.44 137.278 48.125C135.323 47.3976 133.208 47 131 47" stroke="black" stroke-width="12" stroke-linecap="round"/>
</svg>

<svg xmlns="http://www.w3.org/2000/svg" width="192" height="192" fill="none" viewBox="0 0 192 192"><path stroke="#000" stroke-linecap="round" stroke-linejoin="round" stroke-width="12" d="M111 126c0 19.694-20.022 34-39.628 34S40 145.694 40 126"/><path stroke="#000" stroke-width="12" d="M112.5 102.5c8.008 0 16.5-4.544 16.5-12S122.508 77 114.5 77 100 83.044 100 90.5s4.492 12 12.5 12Zm-78 0c8.008 0 16.5-4.544 16.5-12S44.508 77 36.5 77 22 83.044 22 90.5s4.492 12 12.5 12Z"/><path stroke="#000" stroke-linecap="round" stroke-width="12" d="M170 65a38.9 38.9 0 0 0-2.438-13.602 39 39 0 0 0-2.437-5.294 39.1 39.1 0 0 0-8.328-10.354 39 39 0 0 0-6.901-4.875 39 39 0 0 0-5.294-2.437A38.9 38.9 0 0 0 131 26m18 39a18 18 0 0 0-2.25-8.721 18.1 18.1 0 0 0-7.029-7.029A18 18 0 0 0 131 47"/></svg>
